X: 30340
T: Old New Year
R: reel
M: 4/4
K: Eminor
e2dB dBAG|A2AG ABde|e2dB dBAG|ABde aAef|
e2dB dBAG|A2AG ABde|afed e2Aa|afed e3f:|
gffd B2Bd|BABd edef|gffd B2B^c|defd e2ef|
gffd Bza2|gfdB ABde|afed e2Aa|afed e3f:|

